X:1
Q:1/4=100
L:1/8
M:1/4
K:C clef=G2
V:1
%%MIDI program 74
E2|A2|A2|^c2|
B2|A2-|A^G/2^F/2|E2|
A2|^G2|A2|d2|
^c2|^c2|B2|z2|
E2|A2|A2|^c2|
B2|A2-|A^G|^F2|
^GA|B^c|^de|^G2|
^F2|E2-|E2|z2|
E2|d2-|d^c|B2|
B2|^c2-|^cB|A2|
A^c|e2|e2|^c2|
A2|^c2|B2|z2|
E2|A2|A2|^cB|
A^G|^F2|^F2|d2-|
dB|A2|A2|^GA|
B^c|A2-|A2|B2-|
B2||^c2|A^c|e2|
^G2|A2-|A2-|A2|
L:1/8
M:1/4
K:C clef=G2
V:2
%%MIDI program 1
E2|[^CEA]2|[AE^C]2|[^cAE]2|
[DEB]2|[A-^CE]2|[D-A][D-^G]/2[D^F]/2|[^CE]2|
[AE]2|[E-^G]2|[EA]2|[dBE]2|
[^cAE]2|[^cAE]2|[B^GE]2|z2|
ED|[A^C]2|A2|[^cAE]2|
[BE]2|[^F-A-]2|[^FA][E^G]|[^F^D]2|
[E^G][EA]|[E-B][E^c]|[A^d][^Ge]|[^GE]2|
[^F^D]2|E2-|E2|z2|
E2|[E-B-d-]2|[EBd][EA^c]|[B^GE]2|
[B^GE]2|[^c-A-E-]2|[^cAE][D^GB]|[^CEA]2|
A^c|e2|e2|^c2|
A2|[E-^c]2|[EB]2|z2|
E2|[EA]2|A2|[E-^cA][EB]|
[E-A][E^G]|[^FD]2|[D^F]2|[d-B-^F-]2|
[dB^F][B^FD]|[AE^C]2|A2|^GA|
B^c|A2-|A2|[B-E-]2|
[BE]2||[^cE]2|A^c|[e^cAE]2|
[DE^G]2|[^C-E-A-]2|[^C-E-A-]2|[^CEA]2|
L:1/8
M:1/4
K:C clef=F4
V:3
%%MIDI program 1
E,2|A,,2-|A,,2|A,2|
[E,^G,]2|A,2|A,,2|A,,2|
^C,2|D,2|^C,2|[E,^G,,]2|
[E,A,,]2|[E,-E,,-]2|[E,E,,]2||z2|
[^G,E,]2|[A,,A,]2|z2|A,2|
^G,2|[B,-^D,]2|[B,E,]2|B,2|
z2|[B,^G,]2|[B,-^F,][B,E,]|[B,,B,]2|
[B,,B,]2|[E,^G,]2|E,2|E,,2|
z2|^G,2|A,2|E,2|
E,2|A,2|E,2|A,,2|
A,,^C,|E,2|E,2|^C,2|
A,,2|[E,-A,]2|[E,^G,]2|z2|
E,D,|^C,2|z2|A,,2|
B,,^C,|D,2|z2|B,,2|
B,,^C,|E,2|z2|[B,DE,]2|
[D^G,E,]2|[^F,-^C-A,-]2|[^F,^CA,]2|[^G,-B,-]2|
[^G,B,]2||A,E,|^C,A,,|E,2|
E,,2|A,,2-|A,,2-|A,,2|


